X: 27160
T: Miss McLeod's
R: reel
M: 4/4
K: Gmajor
|:G2 BG AGBG|B2 BA BcBA|G2 BG AGBG|A2 AG AcBA|
G2 BG AGBG|B2 BA B2 d2|efed Bdef|~gedB AcBA:|
G2gf edgd|B2BA BcBA|G2 gf edeg|aa/a/ ab agef|
~g3f efge|~B2BA ~B2d2|efed (3Bcd ef|(3gfe dB Ac (3cBA:|

